icons/help.svg

<svg xmlns="http://www.w3.org/2000/svg" width="24" height="24" viewBox="0 0 24 24">
  <path d="M12.105,16 C12.9334271,16 13.605,16.6715729 13.605,17.5 C13.605,18.3284271 12.9334271,19 12.105,19 C11.2765729,19 10.605,18.3284271 10.605,17.5 C10.605,16.6715729 11.2765729,16 12.105,16 Z M12.105,4 C14.311,4 16.105,5.794 16.105,8 C16.105,9.69 15.073,10.431 14.319,10.972 C13.587,11.497 13.105,11.843 13.105,13 L13.105,13 L13.105,14 L11.105,14 L11.105,13 C11.105,10.817 12.289,9.967 13.153,9.347 C13.86,8.839 14.105,8.632 14.105,8 C14.105,6.897 13.208,6 12.105,6 C11.259,6 10.501,6.536 10.218,7.333 L10.218,7.333 L10.2178985,7.33328738 L10.1724809,7.44149151 C9.95231533,7.89068183 9.42553945,8.11342165 8.9425,7.9425 L8.9425,7.9425 L8.94191248,7.94229205 L8.83407057,7.89692547 C8.38515779,7.67654038 8.16282216,7.14978301 8.334,6.667 C8.897,5.072 10.414,4 12.105,4 Z"/>
</svg>

<svg xmlns="http://www.w3.org/2000/svg" viewBox="0 0 24 24">
  <path d="M12.1 16a1.5 1.5 0 1 1 0 3 1.5 1.5 0 0 1 0-3zm0-12a4 4 0 0 1 4 4c0 1.69-1.03 2.43-1.78 2.97-.73.53-1.21.87-1.21 2.03v1h-2v-1c0-2.18 1.18-3.03 2.04-3.65.71-.51.96-.72.96-1.35a2 2 0 0 0-3.9-.67l-.04.11a1 1 0 0 1-1.23.5l-.1-.04a1 1 0 0 1-.5-1.23A4 4 0 0 1 12.1 4z"/>
</svg>
